Numix-GalliumOS/32/actions/archive-remove.svg

<?xml version="1.0" encoding="UTF-8" standalone="no"?>
<svg
   xmlns:dc="http://purl.org/dc/elements/1.1/"
   xmlns:cc="http://creativecommons.org/ns#"
   xmlns:rdf="http://www.w3.org/1999/02/22-rdf-syntax-ns#"
   xmlns:svg="http://www.w3.org/2000/svg"
   xmlns="http://www.w3.org/2000/svg"
   xmlns:sodipodi="http://sodipodi.sourceforge.net/DTD/sodipodi-0.dtd"
   xmlns:inkscape="http://www.inkscape.org/namespaces/inkscape"
   width="32"
   height="32"
   viewBox="0 0 32 32"
   id="svg2"
   version="1.1"
   inkscape:version="0.91 r13725"
   sodipodi:docname="archive-remove.svg">
  <metadata
     id="metadata16">
    <rdf:RDF>
      <cc:Work
         rdf:about="">
        <dc:format>image/svg+xml</dc:format>
        <dc:type
           rdf:resource="http://purl.org/dc/dcmitype/StillImage" />
        <dc:title />
      </cc:Work>
    </rdf:RDF>
  </metadata>
  <defs
     id="defs14" />
  <sodipodi:namedview
     pagecolor="#ffffff"
     bordercolor="#666666"
     borderopacity="1"
     objecttolerance="10"
     gridtolerance="10"
     guidetolerance="10"
     inkscape:pageopacity="0"
     inkscape:pageshadow="2"
     inkscape:window-width="1366"
     inkscape:window-height="704"
     id="namedview12"
     showgrid="true"
     inkscape:zoom="11.313708"
     inkscape:cx="13.1116"
     inkscape:cy="16"
     inkscape:window-x="0"
     inkscape:window-y="27"
     inkscape:window-maximized="1"
     inkscape:current-layer="svg2">
    <inkscape:grid
       type="xygrid"
       id="grid4144" />
  </sodipodi:namedview>
  <path
     style="fill:#c19553"
     d="M 3.605469 2 C 2.800781 2 2 2.800781 2 3.605469 L 2 28.441406 C 2 29.199219 2.800781 30 3.558594 30 L 28.441406 30 C 29.199219 30 30 29.199219 30 28.441406 L 30 3.558594 C 30 2.800781 29.199219 2 28.441406 2 Z "
     id="path4" />
  <path
     style="fill:#fff;fill-opacity:.196"
     d="M 3.605469 2 C 2.800781 2 2 2.800781 2 3.605469 L 2 12 C 5.109375 12 26.890625 12 30 12 L 30 3.558594 C 30 2.800781 29.199219 2 28.441406 2 Z "
     id="path6" />
  <path
     style="fill:#fff"
     d="M 14 2 L 14 4 L 16 4 L 16 6 L 14 6 L 14 8 L 16 8 L 16 10 L 14 10 L 14 12 L 16 12.019531 L 16 16.019531 L 14 16 L 14 20 L 18 20 L 18 16 L 16 16.019531 L 16 14 L 18 14 L 18 12 L 16 12.019531 L 16 10 L 18 10 L 18 8 L 16 8 L 16 6 L 18 6 L 18 4 L 16 4 L 16 2 Z "
     id="path8" />
  <path
     inkscape:connector-curvature="0"
     style="fill:#dc322f"
     d="m 16,22 16,0 0,6 -16,0 z"
     id="path12" />
</svg>

<svg xmlns="http://www.w3.org/2000/svg" viewBox="0 0 32 32">
 <path d="m 3.605 2 c -0.805 0 -1.605 0.801 -1.605 1.605 l 0 24.836 c 0 0.758 0.801 1.559 1.559 1.559 l 24.883 0 c 0.758 0 1.559 -0.801 1.559 -1.559 l 0 -24.883 c 0 -0.758 -0.801 -1.559 -1.559 -1.559 Z" style="fill:#c19553"/>
 <path d="m 3.605 2 c -0.805 0 -1.605 0.801 -1.605 1.605 l 0 8.395 c 3.109 0 24.891 0 28 0 l 0 -8.441 c 0 -0.758 -0.801 -1.559 -1.559 -1.559 Z" style="fill:#fff;fill-opacity:0.196"/>
 <path d="m 14 2 l 0 2 l 2 0 l 0 2 l -2 0 l 0 2 l 2 0 l 0 2 l -2 0 l 0 2 l 2 0.02 l 0 4 l -2 -0.02 l 0 4 l 4 0 l 0 -4 l -2 0.02 l 0 -2.02 l 2 0 l 0 -2 l -2 0.02 l 0 -2.02 l 2 0 l 0 -2 l -2 0 l 0 -2 l 2 0 l 0 -2 l -2 0 l 0 -2 Z" style="fill:#fff"/>
 <path d="m 16 22 16 0 0 6 -16 0 z" style="fill:#dc322f"/>
</svg>
